%
O0358 ( FANUC 0T )
( 10.01.2010 ) 
N01G50S0600
G00T0202 
M41
G96S0450M03
X86. 
Z0.25
G01X118M08F0.3 
Z0.45
G00X96.
G01Z-51.4
X95.6
G00Z0.45 
X101.04
G1Z-51.4 
X100.64
G0Z1 
X104.5 
G1Z-51.4 
X104 
G0Z1 
X107.4 
G1Z-51.4 
X106M9 
G00Z220
T0200
N02G50S0600
G00T0505 
M41
G96S0450M03
X97.04 
Z-45 
G01X118M08F0.3 
Z-46.45
G0X100 
Z-43 
G1X100.64
Z-44.45X102
X118 
Z-45.5M09
G00X97 
Z150.
T0500
N03G50S0600
G00T0404 
M41
G96S0450M03
X106 
Z0.
G01X118M08F.3
Z.45 
G00X109.5
G01Z0.166
X107.91Z-1 
Z-46 
X105M09
G00Z250
T0400
M01
M05
M30
%
