%
O00094 ( HAAS )
( 10.01.2010 )
N10 G17 G40 G21 G90 
N20 G10 L2 P1 X-269.39 Y-254.65 Z-689.
N30 T5 M06 ( 19.1mm CHAMDRILL ) 
N40 IF [ #5405 GE 6000 ] THEN #3000= 15 ( TOOL LIFE EXPIRED )
N50 M88
N60 S1500 M03 
N70 G00 G54 X5.25 Y0. T3
N80 G43 Z50. H05 M08 
N90 G81 G98 Z-15. R5. F412
N100 G00 G80 Z100. M89
N110 T3 M06 ( 20mm 390 ENDMILL ) 
N120 IF [#5403 GE 3600 ] THEN #3000= 15 ( TOOL LIFE EXPIRED )
N130 M88
N140 S3720 M03 
N150 G00 G54 X5.25 Y0. T4
N160 G43 Z5. H03 M08 
N170 G01 Z-5. F200
N180 G02 X5.25 Y0. I-5.25 J0. F1120
N190 G01 Z-10. F200
N200 G02 X5.25 Y0. I-5.25 J0. F1120
N210 G00 G80 Z100. M89
N220 T4 M06 ( ISO 1.5 THREAD MILL ) 
N230 M88
N240 S1869 M03 
N250 G00 G54 X0. Y0. T14
N260 G43 Z5. H04 M08 
N270 G01 Z-12. F500 
N280 G01 X2.75 Y-2.75 G41 D04 F400
N290 G03 X5.5 Y0. I0. J2.75 Z-11.813 F80
N300 G03 X5.5 Y0. I-5.5 J0. Z-10.313
N310 G03 X2.75 Y2.75 I-2.75 J0. Z-10.125
N320 G01 G40 X0. Y0. F400 
N330 G00 G80 Z100. M89
N340 G53 G00 Z0. M05 
N350 G53 X-508. Y0. 
N360 T24 M06 
N370 M30 
%
